papirus/16x16/apps/gmail.svg

<svg height="16" preserveAspectRatio="xMidYMid" viewBox="0 0 16 16" width="16" xmlns="http://www.w3.org/2000/svg" xmlns:xlink="http://www.w3.org/1999/xlink"><linearGradient id="a" gradientTransform="matrix(.07554141 0 0 .05145101 -.01351236 2.0000068)" gradientUnits="userSpaceOnUse" x1="1.3210427" x2="211.76385" y1="127.76156" y2="127.76156"><stop offset="0" stop-opacity=".1"/><stop offset="1" stop-opacity=".2"/></linearGradient><path d="m15 14.000007h-13.9999999c-.54285715 0-1-.438679-1-.990567v-10.0188671c0-.537736.44285714-.990566 1-.990566h13.9999999c.542857 0 1 .4386792 1 .990566v10.0188671c0 .551888-.442857.990567-1 .990567z" fill="#e3e3e3"/><path d="m1.9991161 13.985939l6.808872-5.375904-.701677-.2970171-6.2498398-3.6963637-.014264 9.1582648z" fill="#231f20" opacity=".1"/><path d="m .9905172 2.0464964c-.48357609 0-.88066983.3446645-.97278957.789341-.00007258.0003504.00007223.0007627 0 .00111-.01734398.131381-.01772763.2323553-.01772763.2323553v9.9356903c0 .546526.43938817 1.001226.99162496.995015h1.00837504v-10.9307053c0-.066564-.00686-.1271862-.019942-.1812149-.0659972-.2843406-.1259067-.6048894-.4699071-.8415914z" fill="#d54b3d"/><path d="m14.659598 2.0000085c-.478731.1365693-.670511.5497338-.659598.998884v10.9866065.01451h.979911c.576638 0 1.020089-.445887 1.020089-.984375v-9.1595987-.2142857-.6506697c0-.5518868-.457143-.9910714-1-.9910714z" fill="#d54b3d"/><path d="m11 14.000008l-11-11.000008 1.1476037.5067567 6.8853855 5.4006365 7.9453138-5.745881v9.8537348c0 .534584-.442198.984761-.998513.984761z" fill="url(#a)"/><path d="m1 2c-.55714286 0-1 .4524984-1 .9902344v.2597656l7.4003906 5.5507812a1.0001 1.0001 0 0 0 1.1992188 0l7.4003906-5.5507812v-.2597656c0-.5518868-.457143-.9902344-1-.9902344h-.667969l-6.332031 4.75-6.3320312-4.75z" fill="#d54b3d" fill-rule="evenodd" overflow="visible"/></svg>

<?xml version="1.0" encoding="UTF-8" standalone="no"?>
<svg
   xmlns:dc="http://purl.org/dc/elements/1.1/"
   xmlns:cc="http://creativecommons.org/ns#"
   xmlns:rdf="http://www.w3.org/1999/02/22-rdf-syntax-ns#"
   xmlns:svg="http://www.w3.org/2000/svg"
   xmlns="http://www.w3.org/2000/svg"
   xmlns:sodipodi="http://sodipodi.sourceforge.net/DTD/sodipodi-0.dtd"
   xmlns:inkscape="http://www.inkscape.org/namespaces/inkscape"
   width="16"
   height="16"
   viewBox="0 0 16 16"
   version="1.1"
   preserveAspectRatio="xMidYMid"
   id="svg2"
   inkscape:version="0.91 r13725"
   sodipodi:docname="gmail.svg">
  <metadata
     id="metadata33">
    <rdf:RDF>
      <cc:Work
         rdf:about="">
        <dc:format>image/svg+xml</dc:format>
        <dc:type
           rdf:resource="http://purl.org/dc/dcmitype/StillImage" />
        <dc:title></dc:title>
      </cc:Work>
    </rdf:RDF>
  </metadata>
  <sodipodi:namedview
     pagecolor="#ffffff"
     bordercolor="#666666"
     borderopacity="1"
     objecttolerance="10"
     gridtolerance="10"
     guidetolerance="10"
     inkscape:pageopacity="0"
     inkscape:pageshadow="2"
     inkscape:window-width="1600"
     inkscape:window-height="849"
     id="namedview31"
     showgrid="false"
     inkscape:zoom="22.84"
     inkscape:cx="9.1393364"
     inkscape:cy="7.5472121"
     inkscape:window-x="0"
     inkscape:window-y="30"
     inkscape:window-maximized="1"
     inkscape:current-layer="svg2" />
  <defs
     id="defs4">
    <linearGradient
       x1="1.3210427"
       y1="127.76156"
       x2="211.76385"
       y2="127.76156"
       id="linearGradient-1"
       gradientTransform="matrix(0.07554141,0,0,0.05145101,-0.01351236,2.0000068)"
       gradientUnits="userSpaceOnUse">
      <stop
         stop-color="#000000"
         stop-opacity="0.1"
         offset="0%"
         id="stop7" />
      <stop
         stop-color="#000000"
         stop-opacity="0.2"
         offset="100%"
         id="stop9" />
    </linearGradient>
  </defs>
  <path
     style="fill:#e3e3e3"
     inkscape:connector-curvature="0"
     id="path13"
     d="m 15,14.000007 -13.9999999,0 C 0.45714295,14.000007 9.7142858e-8,13.561328 9.7142858e-8,13.00944 l 0,-10.0188671 C 9.7142858e-8,2.4528369 0.44285724,2.0000069 1.0000001,2.0000069 l 13.9999999,0 c 0.542857,0 1,0.4386792 1,0.990566 L 16,13.00944 c 0,0.551888 -0.442857,0.990567 -1,0.990567 l 0,0 z" />
  <path
     style="opacity:0.1;fill:#231f20"
     inkscape:connector-curvature="0"
     id="path15"
     d="M 1.9991161,13.985939 8.8079881,8.610035 8.1063111,8.3130179 1.8564713,4.6166542 1.8422073,13.774919 Z"
     sodipodi:nodetypes="cccccc" />
  <path
     style="fill:#d54b3d"
     d="m 0.9905172,2.0464964 c -0.48357609,0 -0.88066983,0.3446645 -0.97278957,0.789341 -7.258e-5,3.504e-4 7.223e-5,7.627e-4 0,0.00111 C 3.8365e-4,2.9683284 0,3.0693027 0,3.0693027 l 0,9.9356903 c 0,0.546526 0.43938817,1.001226 0.99162496,0.995015 L 2,14.000008 2,3.0693027 C 2,3.0027387 1.99314,2.9421165 1.980058,2.8880878 1.9140608,2.6037472 1.8541513,2.2831984 1.5101509,2.0464964 Z"
     id="path17"
     inkscape:connector-curvature="0"
     sodipodi:nodetypes="scccsscsccs" />
  <path
     style="fill:#d54b3d"
     d="M 14.659598,2.0000085 C 14.180867,2.1365778 13.989087,2.5497423 14,2.9988925 l 0,10.9866065 0,0.01451 0.979911,0 C 15.556549,14.000009 16,13.554122 16,13.015634 L 16,3.8560353 16,3.6417496 16,2.9910799 C 16,2.4391931 15.542857,2.0000085 15,2.0000085 Z"
     id="path21"
     inkscape:connector-curvature="0"
     sodipodi:nodetypes="ccccssccssc" />
  <path
     inkscape:connector-curvature="0"
     style="fill:url(#linearGradient-1)"
     id="path25"
     d="M 11,14.000008 0,3 l 1.1476037,0.5067567 6.8853855,5.4006365 7.9453138,-5.745881 0,9.8537348 c 0,0.534584 -0.442198,0.984761 -0.998513,0.984761 z"
     sodipodi:nodetypes="cccccssc" />
  <path
     style="color:#000000;font-style:normal;font-variant:normal;font-weight:normal;font-stretch:normal;font-size:medium;line-height:normal;font-family:sans-serif;text-indent:0;text-align:start;text-decoration:none;text-decoration-line:none;text-decoration-style:solid;text-decoration-color:#000000;letter-spacing:normal;word-spacing:normal;text-transform:none;direction:ltr;block-progression:tb;writing-mode:lr-tb;baseline-shift:baseline;text-anchor:start;white-space:normal;clip-rule:nonzero;display:inline;overflow:visible;visibility:visible;opacity:1;isolation:auto;mix-blend-mode:normal;color-interpolation:sRGB;color-interpolation-filters:linearRGB;solid-color:#000000;solid-opacity:1;fill:#d54b3d;fill-opacity:1;fill-rule:evenodd;stroke:none;stroke-width:2;stroke-linecap:round;stroke-linejoin:round;stroke-miterlimit:4;stroke-dasharray:none;stroke-dashoffset:0;stroke-opacity:1;color-rendering:auto;image-rendering:auto;shape-rendering:auto;text-rendering:auto;enable-background:accumulate"
     d="M 1 2 C 0.44285714 2 0 2.4524984 0 2.9902344 L 0 3.25 L 7.4003906 8.8007812 A 1.0001 1.0001 0 0 0 8.5996094 8.8007812 L 16 3.25 L 16 2.9902344 C 16 2.4383476 15.542857 2 15 2 L 14.332031 2 L 8 6.75 L 1.6679688 2 L 1 2 z "
     id="path4361" />
</svg>
